<?xml version="1.0" encoding="UTF-8"?>
<map version="1.10" tiledversion="1.11.2" orientation="orthogonal" renderorder="right-down" width="9" height="9" tilewidth="8" tileheight="8" infinite="0" nextlayerid="2" nextobjectid="1">
 <tileset firstgid="1" source="NES - Metal Gear - Maps - Building 1 (Floor I).tsx"/>
 <layer id="1" name="Capa de patrones 1" width="9" height="9">
  <data encoding="csv">
2454,11894,11385,10023,10024,10619,7287,7671,4881,
3475,6771,1405,6233,6240,333,7415,7799,8055,
2723,10875,2844,6617,6624,336,7543,7927,8183,
7263,7391,11360,6751,6146,10277,10278,10279,10280,
6145,6658,12128,6879,6274,10405,10406,10407,10408,
112,367,377,7007,6402,10533,10534,10535,10536,
240,239,9575,7135,6530,10661,10662,10663,10664,
7782,7910,8038,8166,8294,8422,8550,8678,12117,
10149,10150,10151,10152,10021,10022,0,0,0
</data>
 </layer>
</map>
