<?xml version="1.0" encoding="UTF-8"?>
<map version="1.10" tiledversion="1.11.2" orientation="orthogonal" renderorder="right-down" width="9" height="9" tilewidth="8" tileheight="8" infinite="0" nextlayerid="2" nextobjectid="1">
 <tileset firstgid="1" source="NES - Metal Gear - Maps - Building 1 (Floor I).tsx"/>
 <layer id="1" name="Capa de patrones 1" width="9" height="9">
  <data encoding="csv">
2454,1780,11385,10363,10491,10619,7287,7671,4881,
3475,6771,1405,6233,6240,333,7415,7799,8055,
2723,10875,2844,6617,6624,336,7543,7927,8183,
7263,7391,11360,6751,6146,1549,1550,1551,1552,
6145,6658,12128,6879,6274,1677,1678,1679,1680,
112,367,377,7007,6402,1805,1806,10747,1808,
240,239,10845,7135,6530,1933,1934,12128,1936,
269,270,271,272,245,12113,12114,12116,12117,
397,398,399,400,373,1523,0,0,0
</data>
 </layer>
</map>
