<?xml version="1.0" encoding="UTF-8"?>
<map version="1.10" tiledversion="1.11.2" orientation="orthogonal" renderorder="right-down" width="9" height="9" tilewidth="8" tileheight="8" infinite="0" nextlayerid="2" nextobjectid="1">
 <tileset firstgid="1" source="NES - Metal Gear - Maps - Jungle (Part II).tsx"/>
 <layer id="1" name="Capa de patrones 1" width="9" height="9">
  <data encoding="csv">
7501,7597,7690,8375,8971,8663,1049,1050,1051,
7599,9040,8852,7886,9067,1045,1046,1047,1048,
8738,8836,8838,7781,7461,1141,1142,1143,1144,
8262,8261,8164,7877,6887,1237,1238,1239,1240,
6021,7365,5732,4501,857,860,1145,1146,1147,
77,79,80,176,3927,3929,1241,1242,1243,
173,174,175,172,4298,4203,4214,3925,3916,
269,270,272,268,4218,4022,4023,4117,4204,
365,366,368,364,4502,4503,0,0,0
</data>
 </layer>
</map>
